X: 1
T:Sweet Jenny Jones
M:3/4
C:
S:Seabright
N:
A:Adderbury
O:English
R:W
%P:A(AB)$^6$
P:A(AB)6
%:
%abc2mtex:no
%:
K:D
I:speed 450
P:A
   A2 | d2    A2   F2 | D3    E  F2 | G2    B2 e2 | c2  A2   \
w: l    r     l    r    lh    lt *    lh    l  r    l   r
   Bc | d2    A2   F2 | G2    A2 B2 | A2    d2 c2 | d4       ||\
w: l *  r     l    r    lh    lt lh   l     r  l    t
w:    |               |             |             | X
P:B
   de | f2 d2 f2 | e2 c2 e2 | d2 B2 d2 | c2 A2 \
w:
w:    | x1 x2 x2   x1 x2 x2   x1 x2 x2   x1 X
   de | f2 d2 f2 | e2 c2 A2 | d2 c2 B2 | A4
w:
w: * *  x1 x2 x2   x1 x2 x2   x1 x2 x2   X
   Bc | d2 A2 F2 | D3  E F2 | G2 B2 e2 | c2 A2 \
w: l *  r  l  r    lh  lt *   lh l  r    l  r
   Bc | d2 A2 F2 | G2 A2 B2 | A2 d2 c2 | d4    ||
w: l *  r  l  r    lh lt lh   l  r  l    t
w:    |          |          |          | X
